checkbox-marked-circle-minus-outline.svg

<svg fill="currentColor" viewBox="0 0 24 24"><path d="M14.3 21.7c-.7.2-1.5.3-2.3.3-5.5 0-10-4.5-10-10S6.5 2 12 2c1.3 0 2.6.3 3.8.7l-1.6 1.6c-.7-.2-1.4-.3-2.2-.3-4.4 0-8 3.6-8 8s3.6 8 8 8c.4 0 .9 0 1.3-.1.2.7.6 1.3 1 1.8M7.9 10.1l-1.4 1.4L11 16 21 6l-1.4-1.4-8.6 8.6zM15 17v2h8v-2z"/></svg>

<svg  viewBox="0 0 24 24" fill="currentColor"><path  d="M14.3 21.7C13.6 21.9 12.8 22 12 22C6.5 22 2 17.5 2 12C2 6.5 6.5 2 12 2C13.3 2 14.6 2.3 15.8 2.7L14.2 4.3C13.5 4.1 12.8 4 12 4C7.6 4 4 7.6 4 12C4 16.4 7.6 20 12 20C12.4 20 12.9 20 13.3 19.9C13.5 20.6 13.9 21.2 14.3 21.7M7.9 10.1L6.5 11.5L11 16L21 6L19.6 4.6L11 13.2L7.9 10.1M15 17V19H23V17H15Z"/></svg>
